X:1
T:Title
%%score { ( 1 2 ) | ( 3 4 ) }
L:1/8
Q:1/4=100
M:4/4
K:C
V:1 treble nm="Grand Piano"
V:2 treble 
V:3 bass 
V:4 bass 
V:1
 z DEF [EA]2 [EG]2 | F4 C4 | E^F^GA [EGc]2 [DGB]2 | [CA]4 A2 A2 | cBcd c2 A2 | G3 A G4 | %6
 z DEF D2 [B,D]2 | C4 c2 c2 | c3 c [^Gf]2 _e2 | _e2 ^c2 A2 z2 | [_E^Gc]4 [Gf]2 [G_e]2 | %11
 _e2 ^c2 A2 _B2 | c3 c d2 _e2 | e2 c2 G2 A2 | D2 EF E2 [B,D]2 | C4 c2 c2 | c6 z2 | [Fc]2 F2 A2 c2 | %18
 f2 z2 z4 | f4 z4 | [Bdg]3 [Bf] e2 d2 | c2 [CEA]2 [A,F]2 .[DFA]2 | [CFG]4 [_B,EG]4 | [A,CF]8 |] %24
V:2
 C2 z2 z4 | x8 | x8 | x8 | x8 | x8 | C2 z2 z4 | x8 | x8 | z4 [_EG]4 | x8 | z4 G4 | x8 | x8 | x8 | %15
 x8 | z DEF [CEA]2 [EGc]2 | x8 | z GA_B [FAd]2 [_EAc]2 | z GA_B d2 [cd]2 | x8 | x8 | x8 | x8 |] %24
V:3
 [F,A,]2 [F,A,C]2 [C,C]2 [C,_B,]2 | [F,A,C]4 [F,A,]4 | [E,A,C]2 [E,CE]2 E,2 E,2 | %3
 A,4[K:treble] C2 C2 | [_B,CE]2 [B,CE]2 [A,CF]2[K:bass] [F,CF]2 | [F,B,D]4 [E,CE]4 | %6
 [F,A,]2 [D,A,C]2 [G,C]2 [G,,F,]2 | [C,E,]4 C2 C2 | [^G,_E]3- [G,CE] z2[K:treble] ^G2 | %9
 G2- [_B,G]2 z2 _B2 | ^G,4 [_E,C]2 [E,C]2 | [_B,^CG]2 [B,G]2[K:bass] [_E,_E]4 | %12
 [^G,C_E]3[K:treble] [G,CE] [G,CF]2 [G,C^F]2 | [G,CG]2 [G,E]2[K:bass] [E,G,C]4 | %14
 [F,A,C]2 [D,A,C]2 [G,B,]2 [G,,F,]2 | [C,E,]4 z4 | .E,2 .G,2 z4 | [F,A,C]4 [F,A,C]4 | .A,2 .C2 z4 | %19
 .F2 z2 z4 | [G,G]3 [G,B,] [G,B,G]2 [^G,B,F]2 | [A,CF]2[K:bass] C,2 z G z[K:treble] _B | C,4 C,4 | %23
 F,8 |] %24
V:4
 x8 | x8 | x8 | x4[K:treble] x4 | x6[K:bass] x2 | x8 | x8 | x8 | C4 [_E,C]4[K:treble] | %9
 [_B,^C]2 z2 _E,4 | x8 | x4[K:bass] x4 | x3[K:treble] x5 | x4[K:bass] x4 | x8 | x8 | %16
 [C,C]-[C,F,C][C,C]-[C,A,C] C,2 [C,_B,]2 | x8 | [F,F]-[F,_B,F][F,F]-[F,DF] F,2 F,2 | %19
 [_B,D_B]4 [B,F]2 [A,^F]2 | x8 | z4[K:bass] D,2 _B,,2[K:treble] | x8 | x8 |] %24

